X:1
T:The Banks of Allan
C:Traditional
R:jig
G:fiddle jig, early 18th cent.
S:The Gow Collection of Scottish Dance Music
M:6/8
Q:3/8=120
K:D
%%MIDI gchord fccfcc
A| "D"FGF FED| FAA A2d| "Bm"Bdd "A"Add| "G"Bdd "D"Add| (FG)F- FED| 
(FA)A-A2d| "Bm"BdB "A"AGF| "Em"GEE E2:| g| "D"fgf fed| "A"faa a2g|
"D"fgf fed| "Bm"fbb bag| "A"fga "G"efg| "D"def- fed| "G"BdB "A"AGF|\
 "Em"GEE E2:|
